X:378
T: Bunch of Rushes
N: O'Farrell's Pocket Companion v.4 (Sky ed. p.163)
N: "Irish"
M: C
L: 1/8
Q: 180
K: Dm
A/B/c/d//e//| f3g agfe| d4 A3B| c4 dcAG| A2A2A2 A/B/c/d//e//|
f3g agfe| d4 A3B| c4 dcAG| E3D D2 :|
DE| F3G A2A2| AGFE F3A| c3f dcAG| A2A2A2 A/B/c/d//e//|
f3g agfe| d4 edcA| c4 dcAG| E3D D2 :|
